X:3
T: The Dusty Road to Finegold
C: Larry Cusick
M:6/8
K:D
aef gfe | aef gab | aef gfe | B3 gfe |
aef gfe | d2f gfe | gbg faf | efe e3 :|
B2d A2B | GBG FED | FEF EDB,  | ~A,3 A,3 |
B2d A2B | GBG FED | FEF AFA | ~B3 B3 :|
e2f gfe | aef gfe | dfd cec | BcB AFD |
e2f gfe | aef gab | age ~f3 | edB A3 :|
